src/assets/images/realtime/realtimekit/web/components-gallery/rtk-clock.svg

<svg xmlns="http://www.w3.org/2000/svg" xmlns:xlink="http://www.w3.org/1999/xlink" width="400" height="300" fill="none" viewBox="0 0 400 300"><g clip-path="url(#clip0_9781_46746)"><path fill="#fff" d="M0 0h400v300H0z"/><path fill="url(#pattern0_9781_46746)" d="M0 4.21A4.21 4.21 0 0 1 4.21 0h391.58A4.21 4.21 0 0 1 400 4.21v291.58a4.21 4.21 0 0 1-4.211 4.211H4.211A4.21 4.21 0 0 1 0 295.789z" style="mix-blend-mode:darken"/><path fill="#262626" d="M-66 118.576h321.271a9.146 9.146 0 0 1 9.146 9.147v194.363H-66z"/><path fill="#262626" d="M140.939 123.15a4.574 4.574 0 0 1 4.574-4.574h109.758a9.146 9.146 0 0 1 9.146 9.147v50.306a4.573 4.573 0 0 1-4.573 4.573H145.513a4.574 4.574 0 0 1-4.574-4.573z"/><path fill="#ddd" d="M165.799 142.293a1.144 1.144 0 0 1 2.287 0v8.003h4.573a1.144 1.144 0 1 1 0 2.287h-5.716a1.144 1.144 0 0 1-1.144-1.144zm2.287 24.01c8.84 0 16.006-7.167 16.006-16.007s-7.166-16.006-16.006-16.006-16.006 7.166-16.006 16.006 7.166 16.007 16.006 16.007m0-2.287c-7.577 0-13.72-6.143-13.72-13.72s6.143-13.72 13.72-13.72 13.72 6.143 13.72 13.72-6.143 13.72-13.72 13.72"/><path fill="#fff" fill-opacity=".88" d="M201.455 156.759q-1.371 0-2.336-.746-.965-.753-1.474-2.179-.51-1.431-.51-3.458 0-2.014.51-3.441.515-1.431 1.48-2.184.97-.759 2.33-.759t2.324.759q.97.753 1.481 2.184.515 1.427.515 3.441 0 2.027-.509 3.458-.51 1.426-1.475 2.179-.965.746-2.336.746m0-1.335q1.359 0 2.112-1.311.752-1.31.752-3.737 0-1.614-.346-2.749-.34-1.135-.983-1.729a2.17 2.17 0 0 0-1.535-.595q-1.347 0-2.105 1.329-.759 1.323-.759 3.744 0 1.614.34 2.742.34 1.129.977 1.718.643.588 1.547.588m10.582-11.432a4.5 4.5 0 0 1 1.529.292q.765.285 1.396.946.631.656 1.013 1.79.382 1.135.382 2.846 0 1.656-.315 2.943-.31 1.28-.898 2.16-.583.88-1.42 1.335-.831.455-1.881.455-1.044 0-1.863-.413a3.65 3.65 0 0 1-1.335-1.159 4.04 4.04 0 0 1-.661-1.729h1.48q.201.856.795 1.414.602.552 1.584.552 1.438 0 2.269-1.256.838-1.255.838-3.55h-.097q-.34.51-.807.88a3.58 3.58 0 0 1-2.251.771 3.8 3.8 0 0 1-1.96-.528 4 4 0 0 1-1.42-1.462q-.528-.935-.528-2.136 0-1.14.51-2.088a3.93 3.93 0 0 1 1.444-1.516q.934-.565 2.196-.547m0 1.335q-.764 0-1.377.383a2.74 2.74 0 0 0-.965 1.019 2.9 2.9 0 0 0-.352 1.414q0 .777.34 1.414.346.63.94 1.007.601.37 1.366.37.576 0 1.074-.225.497-.23.867-.625.376-.4.589-.904a2.7 2.7 0 0 0 .212-1.061q0-.729-.352-1.366a2.8 2.8 0 0 0-.958-1.031 2.5 2.5 0 0 0-1.384-.395m7.775 9.672q-.45 0-.771-.321a1.05 1.05 0 0 1-.322-.771q0-.449.322-.77.321-.322.771-.322.449 0 .77.322.322.321.322.77 0 .297-.152.546-.146.25-.394.401a1.04 1.04 0 0 1-.546.145m0-6.286q-.45 0-.771-.321a1.06 1.06 0 0 1-.322-.771q0-.448.322-.771.321-.321.771-.321.449 0 .77.321.322.323.322.771 0 .297-.152.546a1.15 1.15 0 0 1-.394.401 1.04 1.04 0 0 1-.546.145m3.346 5.328v-1.238l5.461-8.641h.898v1.918h-.607l-4.126 6.529v.097h7.354v1.335zm5.849 2.548v-12.427h1.432v12.427zm9.288.17q-1.068 0-1.923-.425a3.56 3.56 0 0 1-1.371-1.165 3.2 3.2 0 0 1-.565-1.687h1.457q.084.844.764 1.396.685.546 1.638.546.765 0 1.36-.358.6-.358.94-.983.346-.631.346-1.426 0-.813-.358-1.45a2.6 2.6 0 0 0-.971-1.013 2.75 2.75 0 0 0-1.414-.377 3.9 3.9 0 0 0-1.171.176q-.6.176-.989.456l-1.407-.17.752-6.117h6.456v1.335h-5.194l-.437 3.665h.073a3.2 3.2 0 0 1 .959-.503 3.6 3.6 0 0 1 1.201-.201q1.141 0 2.033.546.898.54 1.407 1.481.516.94.516 2.148 0 1.19-.534 2.124a3.9 3.9 0 0 1-1.456 1.468q-.929.534-2.112.534"/><path fill="#474747" d="M43.758 149.446a6.86 6.86 0 0 1 6.86-6.86h75.459a9.146 9.146 0 0 1 9.146 9.146 6.86 6.86 0 0 1-6.86 6.86H50.618a6.86 6.86 0 0 1-6.86-6.86z"/><rect width="170.354" height="82.319" x="122.646" y="106" stroke="#e7883b" stroke-dasharray="6.86 6.86" stroke-linecap="round" stroke-width="2.287" rx="9.146"/></g><defs><clipPath id="clip0_9781_46746"><path fill="#fff" d="M0 0h400v300H0z"/></clipPath><pattern id="pattern0_9781_46746" width=".037" height=".049" patternContentUnits="objectBoundingBox"><use xlink:href="#image0_9781_46746" transform="scale(.00066 .00088)"/></pattern><image xlink:href="data:image/png;base64,iVBORw0KGgoAAAANSUhEUgAAADgAAAA4CAYAAACohjseAAAACXBIWXMAACxLAAAsSwGlPZapAAAAAXNSR0IArs4c6QAAAARnQU1BAACxjwv8YQUAAADdSURBVHgB7dmxDoMgFIXhCzEmbsbF9388F8PGAKHt6dSksvXaHHK+EQbzB0Sj4fFiA4s2OAWyUyA7BbJTIDsFslMgOwWyUyA7BbJTIDsFspvsBrVWO8/TSinWWrNlWWxdV5sm/8sH7w+/iDuO4x32KcZo+767R7pv0ZTSVxxgDKvqzT0w59ydw5b15h4YQujOXa3sr7kHzvPcncNh4809cNu2y1XEGE5Sb+GO32c4SXHY4H5EGFYV4UM8Jv5Nr2rsFMhOgewUyE6B7BTIToHsFMhOgewUyE6B7IYPfALcB0NZ5j6jXgAAAABJRU5ErkJggg==" id="image0_9781_46746" width="56" height="56" preserveAspectRatio="none"/></defs></svg>

<svg width="400" height="300" viewBox="0 0 400 300" fill="none" xmlns="http://www.w3.org/2000/svg" xmlns:xlink="http://www.w3.org/1999/xlink">
<g clip-path="url(#clip0_9781_46746)">
<rect width="400" height="300" fill="white"/>
<g style="mix-blend-mode:darken">
<path d="M0 4.21053C0 1.88512 1.88512 0 4.21053 0H395.789C398.115 0 400 1.88512 400 4.21053V295.789C400 298.115 398.115 300 395.789 300H4.21054C1.88513 300 0 298.115 0 295.789V4.21053Z" fill="url(#pattern0_9781_46746)"/>
</g>
<path d="M-66 118.576H255.271C260.322 118.576 264.417 122.671 264.417 127.723V322.086H-66V118.576Z" fill="#262626"/>
<path d="M140.939 123.15C140.939 120.624 142.987 118.576 145.513 118.576H255.271C260.322 118.576 264.417 122.671 264.417 127.723V178.029C264.417 180.554 262.37 182.602 259.844 182.602H145.513C142.987 182.602 140.939 180.554 140.939 178.029V123.15Z" fill="#262626"/>
<path d="M165.799 142.293C165.799 141.662 166.311 141.15 166.943 141.15C167.574 141.15 168.086 141.662 168.086 142.293V150.296H172.659C173.291 150.296 173.803 150.808 173.803 151.439C173.803 152.071 173.291 152.583 172.659 152.583H166.943C166.311 152.583 165.799 152.071 165.799 151.439V142.293ZM168.086 166.303C176.926 166.303 184.092 159.136 184.092 150.296C184.092 141.456 176.926 134.29 168.086 134.29C159.246 134.29 152.08 141.456 152.08 150.296C152.08 159.136 159.246 166.303 168.086 166.303ZM168.086 164.016C160.509 164.016 154.366 157.873 154.366 150.296C154.366 142.719 160.509 136.576 168.086 136.576C175.663 136.576 181.806 142.719 181.806 150.296C181.806 157.873 175.663 164.016 168.086 164.016Z" fill="#DDDDDD"/>
<path d="M201.455 156.759C200.541 156.759 199.762 156.51 199.119 156.013C198.476 155.511 197.984 154.785 197.645 153.834C197.305 152.88 197.135 151.727 197.135 150.376C197.135 149.033 197.305 147.886 197.645 146.935C197.988 145.981 198.482 145.253 199.125 144.751C199.772 144.245 200.549 143.992 201.455 143.992C202.361 143.992 203.136 144.245 203.779 144.751C204.426 145.253 204.92 145.981 205.26 146.935C205.603 147.886 205.775 149.033 205.775 150.376C205.775 151.727 205.605 152.88 205.266 153.834C204.926 154.785 204.434 155.511 203.791 156.013C203.148 156.51 202.369 156.759 201.455 156.759ZM201.455 155.424C202.361 155.424 203.065 154.987 203.567 154.113C204.068 153.24 204.319 151.994 204.319 150.376C204.319 149.3 204.204 148.383 203.973 147.627C203.747 146.871 203.419 146.294 202.99 145.898C202.565 145.501 202.054 145.303 201.455 145.303C200.557 145.303 199.855 145.746 199.35 146.632C198.844 147.514 198.591 148.762 198.591 150.376C198.591 151.452 198.704 152.366 198.931 153.118C199.157 153.871 199.483 154.443 199.908 154.836C200.337 155.228 200.852 155.424 201.455 155.424ZM212.037 143.992C212.547 143.996 213.057 144.094 213.566 144.284C214.076 144.474 214.541 144.789 214.962 145.23C215.383 145.667 215.72 146.264 215.975 147.02C216.23 147.777 216.357 148.725 216.357 149.866C216.357 150.97 216.252 151.951 216.042 152.809C215.836 153.662 215.536 154.382 215.144 154.969C214.756 155.556 214.282 156.001 213.724 156.304C213.17 156.607 212.543 156.759 211.843 156.759C211.147 156.759 210.526 156.621 209.98 156.346C209.438 156.067 208.993 155.681 208.645 155.187C208.302 154.69 208.081 154.113 207.984 153.458H209.464C209.598 154.029 209.863 154.5 210.259 154.872C210.66 155.24 211.188 155.424 211.843 155.424C212.802 155.424 213.558 155.005 214.112 154.168C214.671 153.331 214.95 152.148 214.95 150.618H214.853C214.626 150.958 214.357 151.252 214.046 151.498C213.734 151.745 213.388 151.935 213.008 152.069C212.628 152.202 212.223 152.269 211.795 152.269C211.083 152.269 210.429 152.093 209.835 151.741C209.244 151.385 208.771 150.898 208.415 150.279C208.063 149.656 207.887 148.944 207.887 148.143C207.887 147.382 208.057 146.687 208.397 146.055C208.74 145.42 209.222 144.915 209.841 144.539C210.464 144.162 211.196 143.98 212.037 143.992ZM212.037 145.327C211.528 145.327 211.068 145.455 210.66 145.71C210.255 145.96 209.934 146.3 209.695 146.729C209.46 147.154 209.343 147.625 209.343 148.143C209.343 148.661 209.456 149.132 209.683 149.557C209.914 149.977 210.227 150.313 210.623 150.564C211.024 150.811 211.479 150.934 211.989 150.934C212.373 150.934 212.731 150.859 213.063 150.709C213.394 150.556 213.684 150.347 213.93 150.084C214.181 149.817 214.377 149.516 214.519 149.18C214.661 148.841 214.731 148.487 214.731 148.119C214.731 147.633 214.614 147.178 214.379 146.753C214.149 146.329 213.829 145.985 213.421 145.722C213.016 145.459 212.555 145.327 212.037 145.327ZM219.812 154.999C219.512 154.999 219.255 154.892 219.041 154.678C218.827 154.463 218.719 154.207 218.719 153.907C218.719 153.608 218.827 153.351 219.041 153.137C219.255 152.922 219.512 152.815 219.812 152.815C220.111 152.815 220.368 152.922 220.582 153.137C220.797 153.351 220.904 153.608 220.904 153.907C220.904 154.105 220.853 154.287 220.752 154.453C220.655 154.619 220.523 154.753 220.358 154.854C220.196 154.951 220.014 154.999 219.812 154.999ZM219.812 148.713C219.512 148.713 219.255 148.606 219.041 148.392C218.827 148.177 218.719 147.92 218.719 147.621C218.719 147.322 218.827 147.065 219.041 146.85C219.255 146.636 219.512 146.529 219.812 146.529C220.111 146.529 220.368 146.636 220.582 146.85C220.797 147.065 220.904 147.322 220.904 147.621C220.904 147.819 220.853 148.001 220.752 148.167C220.655 148.333 220.523 148.466 220.358 148.568C220.196 148.665 220.014 148.713 219.812 148.713ZM223.158 154.041V152.803L228.619 144.162H229.517V146.08H228.91L224.784 152.609V152.706H232.138V154.041H223.158ZM229.007 156.589V153.664V153.088V144.162H230.439V156.589H229.007ZM238.295 156.759C237.583 156.759 236.942 156.617 236.372 156.334C235.802 156.051 235.344 155.663 235.001 155.169C234.657 154.676 234.469 154.113 234.436 153.482H235.893C235.949 154.045 236.204 154.51 236.657 154.878C237.114 155.242 237.66 155.424 238.295 155.424C238.805 155.424 239.258 155.305 239.655 155.066C240.055 154.827 240.369 154.5 240.595 154.083C240.826 153.662 240.941 153.187 240.941 152.657C240.941 152.115 240.822 151.632 240.583 151.207C240.348 150.778 240.025 150.44 239.612 150.194C239.2 149.947 238.728 149.822 238.198 149.817C237.818 149.813 237.428 149.872 237.027 149.993C236.627 150.111 236.297 150.262 236.038 150.449L234.631 150.279L235.383 144.162H241.839V145.497H236.645L236.208 149.162H236.281C236.536 148.96 236.855 148.792 237.24 148.659C237.624 148.525 238.024 148.458 238.441 148.458C239.202 148.458 239.879 148.64 240.474 149.004C241.072 149.364 241.542 149.858 241.881 150.485C242.225 151.112 242.397 151.828 242.397 152.633C242.397 153.426 242.219 154.134 241.863 154.757C241.511 155.376 241.026 155.865 240.407 156.225C239.788 156.581 239.084 156.759 238.295 156.759Z" fill="white" fill-opacity="0.88"/>
<path d="M43.7581 149.446C43.7581 145.657 46.8293 142.586 50.6179 142.586H126.077C131.128 142.586 135.223 146.681 135.223 151.732C135.223 155.521 132.152 158.592 128.363 158.592H50.6179C46.8293 158.592 43.7581 155.521 43.7581 151.732V149.446Z" fill="#474747"/>
<rect x="122.646" y="106" width="170.354" height="82.3185" rx="9.1465" stroke="#E7883B" stroke-width="2.28662" stroke-linecap="round" stroke-dasharray="6.86 6.86"/>
</g>
<defs>
<pattern id="pattern0_9781_46746" patternContentUnits="objectBoundingBox" width="0.0368421" height="0.0491228">
<use xlink:href="#image0_9781_46746" transform="scale(0.000657895 0.000877193)"/>
</pattern>
<clipPath id="clip0_9781_46746">
<rect width="400" height="300" fill="white"/>
</clipPath>
<image id="image0_9781_46746" width="56" height="56" preserveAspectRatio="none" xlink:href="data:image/png;base64,iVBORw0KGgoAAAANSUhEUgAAADgAAAA4CAYAAACohjseAAAACXBIWXMAACxLAAAsSwGlPZapAAAAAXNSR0IArs4c6QAAAARnQU1BAACxjwv8YQUAAADdSURBVHgB7dmxDoMgFIXhCzEmbsbF9388F8PGAKHt6dSksvXaHHK+EQbzB0Sj4fFiA4s2OAWyUyA7BbJTIDsFslMgOwWyUyA7BbJTIDsFspvsBrVWO8/TSinWWrNlWWxdV5sm/8sH7w+/iDuO4x32KcZo+767R7pv0ZTSVxxgDKvqzT0w59ydw5b15h4YQujOXa3sr7kHzvPcncNh4809cNu2y1XEGE5Sb+GO32c4SXHY4H5EGFYV4UM8Jv5Nr2rsFMhOgewUyE6B7BTIToHsFMhOgewUyE6B7IYPfALcB0NZ5j6jXgAAAABJRU5ErkJggg=="/>
</defs>
</svg>
